!!!COM: Paul Hindemith
!!!OTL: [T682_Hin-w95p86-87m102-108]
!!!Xfilter: transpose -t P8 -s 39
**kern	**dynam	**kern	**dynam	**kern	**dynam	**kern	**dynam	**kern	**dynam	**kern	**dynam	**kern	**dynam	**kern	**dynam	**kern	**dynam	**kern	**dynam	**kern	**dynam	**kern	**dynam	**kern	**dynam	**kern	**dynam	**kern	**dynam	**kern	**dynam	**kern	**dynam	**kern	**dynam	**kern	**dynam	**kern	**dynam
*grp:A	*	*grp:A	*	*grp:A	*	*grp:B	*	*grp:B	*	*grp:C	*	*grp:C	*	*grp:C	*	*grp:C	*	*grp:C	*	*grp:A	*	*grp:A	*	*grp:A	*	*	*	*grp:D	*	*grp:D	*	*grp:D	*	*grp:D	*	*grp:D	*	*grp:D	*
*part20	*part20	*part19	*part19	*part18	*part18	*part17	*part17	*part16	*part16	*part15	*part15	*part14	*part14	*part13	*part13	*part12	*part12	*part11	*part11	*part10	*part10	*part9	*part9	*part8	*part8	*part7	*part7	*part6	*part6	*part5	*part5	*part4	*part4	*part3	*part3	*part2	*part2	*part1	*part1
*staff20	*	*staff19	*	*staff18	*	*staff17	*	*staff16	*	*staff15	*	*staff14	*	*staff13	*	*staff12	*	*staff11	*	*staff10	*	*staff9	*	*staff8	*	*staff7	*	*staff6	*	*staff5	*	*staff4	*	*staff3	*	*staff2	*	*staff1	*
*I"Contrabass	*	*I"Violoncello	*	*I"Viola	*	*I"Violin 2	*	*I"Violin 1	*	*I"Tambourine	*	*I"Horn in F 4	*	*I"Horn in F 3	*	*I"Horn in F 2	*	*I"Horn in F 1	*	*I"Contrabassoon	*	*I"Bassoon 2	*	*I"Bassoon 1	*	*I"Bass Clarinet in Bb	*	*I"Clarinet in Bb 2	*	*I"Clarinet in Bb 1	*	*I"Oboe 2	*	*I"Oboe 1	*	*I"Flute 1	*	*I"Piccolo	*
*I'Cb.	*	*I'Vc.	*	*I'Vla.	*	*I'2.Vln.	*	*I'1.Vln.	*	*I'Tamb.	*	*I'4.Hn.	*	*I'3.Hn.	*	*I'2.Hn.	*	*I'1.Hn.	*	*I'Cbsn.	*	*I'2.Bsn.	*	*I'1.Bsn.	*	*I'B. Cl.	*	*I'2.Cl.	*	*I'1.Cl.	*	*I'2.Ob.	*	*I'1.Ob.	*	*I'1.Fl.	*	*I'Picc.	*
*ICstr	*	*ICstr	*	*ICstr	*	*ICstr	*	*ICstr	*	*ICidio	*	*ICbras	*	*ICbras	*	*ICbras	*	*ICbras	*	*ICww	*	*ICww	*	*ICww	*	*ICww	*	*ICww	*	*ICww	*	*ICww	*	*ICww	*	*ICww	*	*ICww	*
*Icbass	*	*Icello	*	*Iviola	*	*Ivioln	*	*Ivioln	*	*Itrine	*	*Icor	*	*Icor	*	*Icor	*	*Icor	*	*Ifag_c	*	*Ifagot	*	*Ifagot	*	*Iclarb	*	*Iclars	*	*Iclars	*	*Ioboe	*	*Ioboe	*	*Iflt	*	*Ipicco	*
*	*	*	*	*	*	*	*	*	*	*stria1	*	*	*	*	*	*	*	*	*	*	*	*	*	*	*	*	*	*	*	*	*	*	*	*	*	*	*	*	*
*clefF4	*	*clefF4	*	*clefC3	*	*clefG2	*	*clefG2	*	*clefX	*	*clefG2	*	*clefG2	*	*clefG2	*	*clefG2	*	*clefF4	*	*clefF4	*	*clefF4	*	*clefF4	*	*clefG2	*	*clefG2	*	*clefG2	*	*clefG2	*	*clefG2	*	*clefG2	*
*ITrd7c12	*	*	*	*	*	*	*	*	*	*	*	*ITrd4c7	*	*ITrd4c7	*	*ITrd4c7	*	*ITrd4c7	*	*ITrd7c12	*	*	*	*	*	*ITrd1c2	*	*ITrd1c2	*	*ITrd1c2	*	*	*	*	*	*	*	*ITrd-7c-12	*
*k[]	*	*k[]	*	*k[]	*	*k[]	*	*k[]	*	*k[]	*	*k[b-]	*	*k[b-]	*	*k[b-]	*	*k[b-]	*	*k[]	*	*k[]	*	*k[]	*	*k[b-e-]	*	*k[b-e-]	*	*k[b-e-]	*	*k[]	*	*k[]	*	*k[]	*	*k[]	*
*	*	*	*	*	*	*	*	*	*	*C:	*	*	*	*	*	*	*	*	*	*	*	*	*	*	*	*	*	*	*	*	*	*	*	*	*	*	*	*	*
*M9/8	*	*M9/8	*	*M9/8	*	*M9/8	*	*M9/8	*	*M9/8	*	*M9/8	*	*M9/8	*	*M9/8	*	*M9/8	*	*M9/8	*	*M9/8	*	*M9/8	*	*M9/8	*	*M9/8	*	*M9/8	*	*M9/8	*	*M9/8	*	*M9/8	*	*M9/8	*
=1	=1	=1	=1	=1	=1	=1	=1	=1	=1	=1	=1	=1	=1	=1	=1	=1	=1	=1	=1	=1	=1	=1	=1	=1	=1	=1	=1	=1	=1	=1	=1	=1	=1	=1	=1	=1	=1	=1	=1
!	!	!	!	!	!LO:DY:ed=brack	!	!	!	!	!	!	!	!	!	!	!	!	!	!	!	!	!	!LO:DY:ed=brack	!	!LO:DY:ed=brack	!	!	!	!	!	!	!	!	!	!	!	!	!LO:TX:t=[quarter-dot]=69	!
4.r	.	4.r	.	8e)j	4ryy	8ryy	.	8ryy	.	8ryy	.	8ryy	.	8ryy	.	8ryy	.	8ryy	.	4.r	.	8e)j	4ryy	8e)j	4ryy	8%9ryy	.	4.ryy	.	4.ryy	.	4.ryy	.	16ryy	4ryy	16ryy	4ryy	16ryy	4ryy
.	.	.	.	.	.	.	.	.	.	.	.	.	.	.	.	.	.	.	.	.	.	.	.	.	.	.	.	.	.	.	.	.	.	16ryy	.	16ryy	.	16ryy	.
.	.	.	.	8r	.	8ryy	.	8ryy	.	8ryy	4ryy	8ryy	4ryy	8ryy	4ryy	8ryy	4ryy	8ryy	4ryy	.	.	8r	.	8r	.	.	.	.	.	.	.	.	.	16ryy	.	16ryy	.	16ryy	.
.	.	.	.	.	.	.	.	.	.	.	.	.	.	.	.	.	.	.	.	.	.	.	.	.	.	.	.	.	.	.	.	.	.	16ryy	.	16ryy	.	16ryy	.
.	.	.	.	8r	.	8ryy	4ryy	8ryy	4ryy	16ryy	.	16ryy	.	16ryy	.	16ryy	.	16ryy	.	.	.	8r	.	8r	.	.	.	.	.	.	.	.	.	16ryy	.	16ryy	.	16ryy	.
.	.	.	.	.	.	.	.	.	.	16ryy	.	16ryy	.	16ryy	.	16ryy	.	16ryy	.	.	.	.	.	.	.	.	.	.	.	.	.	.	.	16ryy	.	16ryy	.	16ryy	.
[4.AAA	4ryy	(4.C#X~t	4ryy	(4.c#X~t	4ryy	4.ryy	.	4.ryy	.	8ryy	.	8ryy	.	8ryy	.	8ryy	.	8ryy	.	[4.AAA	4ryy	[4.AA	4ryy	[4.A	4ryy	.	.	4.ryy	.	4.ryy	.	4.ryy	.	16ryy	.	16ryy	.	16ryy	.
.	.	.	.	.	.	.	.	.	.	.	.	.	.	.	.	.	.	.	.	.	.	.	.	.	.	.	.	.	.	.	.	.	.	16ryy	.	16ryy	.	16ryy	.
.	.	.	.	.	.	.	.	.	.	8ryy	.	8r'yy	.	8ryy	.	8ryy	.	8ryy	.	.	.	.	.	.	.	.	.	.	.	.	.	.	.	16ryy	.	16ryy	.	16ryy	.
.	.	.	.	.	.	.	.	.	.	.	.	.	.	.	.	.	.	.	.	.	.	.	.	.	.	.	.	.	.	.	.	.	.	16ryy	.	16ryy	.	16ryy	.
.	.	.	.	.	.	.	.	.	.	8ryy	.	8ryy	.	8ryy	.	8ryy	.	8ryy	.	.	.	.	.	.	.	.	.	.	.	.	.	.	.	16ryy	.	16ryy	.	16ryy	.
.	.	.	.	.	.	.	.	.	.	.	.	.	.	.	.	.	.	.	.	.	.	.	.	.	.	.	.	.	.	.	.	.	.	16ryy	.	16ryy	.	16ryy	.
4AAA]	.	4Cn)	.	4cn)	.	4ryy	.	4ryy	.	4.ryy	.	8ryy	.	8ryy	.	8ryy	.	8ryy	.	4AAA]	.	4AA]	.	4A]	.	.	.	8ryy	.	8ryy	.	8ryy	.	8ryy	.	8ryy	.	8ryy	.
.	.	.	.	.	.	.	.	.	.	.	.	8ryy	.	8ryy	.	8ryy	.	8ryy	.	.	.	.	.	.	.	.	.	16ryy	4ryy	16ryy	4ryy	16ryy	4ryy	8ryy	.	8ryy	.	8ryy	.
.	.	.	.	.	.	.	.	.	.	.	.	.	.	.	.	.	.	.	.	.	.	.	.	.	.	.	.	16ryy	.	16ryy	.	16ryy	.	.	.	.	.	.	.
8r	.	8r	.	8r	.	8ryy	.	8ryy	.	.	.	8ryy	.	8ryy	.	8ryy	.	8ryy	.	8r	.	8r	.	8r	.	.	.	16ryy	.	16ryy	.	16ryy	.	8ryy	.	8ryy	.	8ryy	.
.	.	.	.	.	.	.	.	.	.	.	.	.	.	.	.	.	.	.	.	.	.	.	.	.	.	.	.	16ryy	.	16ryy	.	16ryy	.	.	.	.	.	.	.
=2	=2	=2	=2	=2	=2	=2	=2	=2	=2	=2	=2	=2	=2	=2	=2	=2	=2	=2	=2	=2	=2	=2	=2	=2	=2	=2	=2	=2	=2	=2	=2	=2	=2	=2	=2	=2	=2	=2	=2
[4.EEE	.	(4.GG#X~t	.	(4.G#X~t	.	4.ryy	.	4.ryy	.	4.ryy	.	8ryy	.	8ryy	.	8ryy	.	8ryy	.	[4.EEE	.	[4.EE	.	[4.E	.	8%9ryy	.	16ryy	.	16ryy	.	16ryy	.	4.ryy	.	4.ryy	.	4.ryy	.
.	.	.	.	.	.	.	.	.	.	.	.	.	.	.	.	.	.	.	.	.	.	.	.	.	.	.	.	16ryy	.	16ryy	.	16ryy	.	.	.	.	.	.	.
.	.	.	.	.	.	.	.	.	.	.	.	8ryy	.	8ryy	.	8ryy	.	8ryy	.	.	.	.	.	.	.	.	.	16ryy	.	16ryy	.	16ryy	.	.	.	.	.	.	.
.	.	.	.	.	.	.	.	.	.	.	.	.	.	.	.	.	.	.	.	.	.	.	.	.	.	.	.	16ryy	.	16ryy	.	16ryy	.	.	.	.	.	.	.
.	.	.	.	.	.	.	.	.	.	.	.	8ryy	.	8ryy	.	8ryy	.	8ryy	.	.	.	.	.	.	.	.	.	16ryy	.	16ryy	.	16ryy	.	.	.	.	.	.	.
.	.	.	.	.	.	.	.	.	.	.	.	.	.	.	.	.	.	.	.	.	.	.	.	.	.	.	.	16ryy	.	16ryy	.	16ryy	.	.	.	.	.	.	.
!	!	!	!	!	!	!	!	!LO:TX:t=P:problem:originally crotchet duplets	!	!	!	!	!	!	!	!	!	!	!	!	!	!	!	!	!	!	!	!	!	!	!	!	!	!	!	!	!	!	!
4EEE]	.	4GGn)	.	4Gn)	.	16%3ryy	.	16%3ryy	.	4.ryy	.	4.ryy	.	4.ryy	.	4.ryy	.	4.ryy	.	4EEE]	.	4EE]	.	4E]	.	.	.	16ryy	.	16ryy	.	16ryy	.	8ryy	.	8ryy	.	8ryy	.
.	.	.	.	.	.	.	.	.	.	.	.	.	.	.	.	.	.	.	.	.	.	.	.	.	.	.	.	16ryy	.	16ryy	.	16ryy	.	.	.	.	.	.	.
.	.	.	.	.	.	.	.	.	.	.	.	.	.	.	.	.	.	.	.	.	.	.	.	.	.	.	.	8ryy	.	8ryy	.	8ryy	.	8ryy	.	8ryy	.	8ryy	.
.	.	.	.	.	.	16%3ryy	.	16%3ryy	.	.	.	.	.	.	.	.	.	.	.	.	.	.	.	.	.	.	.	.	.	.	.	.	.	.	.	.	.	.	.
8r	.	8r	.	8r	.	.	.	.	.	.	.	.	.	.	.	.	.	.	.	8r	.	8r	.	8r	.	.	.	8ryy	.	8ryy	.	8ryy	.	16ryy	.	16ryy	.	16ryy	.
.	.	.	.	.	.	.	.	.	.	.	.	.	.	.	.	.	.	.	.	.	.	.	.	.	.	.	.	.	.	.	.	.	.	16ryy	.	16ryy	.	16ryy	.
[4.BBB	.	(4.D#X~t	.	(4.d#X~t	.	4.ryy	.	4.ryy	.	8ryy	.	8ryy	.	8ryy	.	8ryy	.	8ryy	.	[4.BBB	.	[4.BB	.	[4.B	.	.	.	4.ryy	.	4.ryy	.	4.ryy	.	16ryy	.	16ryy	.	16ryy	.
.	.	.	.	.	.	.	.	.	.	.	.	.	.	.	.	.	.	.	.	.	.	.	.	.	.	.	.	.	.	.	.	.	.	16ryy	.	16ryy	.	16ryy	.
.	.	.	.	.	.	.	.	.	.	8ryy	4ryy	8ryy	.	8ryy	.	8ryy	.	8ryy	.	.	.	.	.	.	.	.	.	.	.	.	.	.	.	16ryy	.	16ryy	.	16ryy	.
.	.	.	.	.	.	.	.	.	.	.	.	.	.	.	.	.	.	.	.	.	.	.	.	.	.	.	.	.	.	.	.	.	.	16ryy	.	16ryy	.	16ryy	.
.	.	.	.	.	.	.	.	.	.	16ryy	.	16ryy	.	16ryy	.	16ryy	.	16ryy	.	.	.	.	.	.	.	.	.	.	.	.	.	.	.	16ryy	.	16ryy	.	16ryy	.
.	.	.	.	.	.	.	.	.	.	16ryy	.	16ryy	.	16ryy	.	16ryy	.	16ryy	.	.	.	.	.	.	.	.	.	.	.	.	.	.	.	16ryy	.	16ryy	.	16ryy	.
=3	=3	=3	=3	=3	=3	=3	=3	=3	=3	=3	=3	=3	=3	=3	=3	=3	=3	=3	=3	=3	=3	=3	=3	=3	=3	=3	=3	=3	=3	=3	=3	=3	=3	=3	=3	=3	=3	=3	=3
4BBB]	.	4Dn)	.	4dn)	.	4ryy	.	4ryy	.	8ryy	.	8ryy	.	8ryy	.	8ryy	.	8ryy	.	4BBB]	.	4BB]	.	4B]	.	8%9ryy	.	4.ryy	.	4.ryy	.	4.ryy	.	16ryy	.	16ryy	.	16ryy	.
.	.	.	.	.	.	.	.	.	.	.	.	.	.	.	.	.	.	.	.	.	.	.	.	.	.	.	.	.	.	.	.	.	.	16ryy	.	16ryy	.	16ryy	.
.	.	.	.	.	.	.	.	.	.	8ryy	.	8ryy	.	8ryy	.	8ryy	.	8ryy	.	.	.	.	.	.	.	.	.	.	.	.	.	.	.	16ryy	.	16ryy	.	16ryy	.
.	.	.	.	.	.	.	.	.	.	.	.	.	.	.	.	.	.	.	.	.	.	.	.	.	.	.	.	.	.	.	.	.	.	16ryy	.	16ryy	.	16ryy	.
8r	.	8r	.	8r	.	8ryy	.	8ryy	.	8ryy	.	8ryy	.	8ryy	.	8ryy	.	8ryy	.	8r	.	8r	.	8r	.	.	.	.	.	.	.	.	.	8ryy	.	8ryy	.	8ryy	.
[4.FFF#X	.	(4.A#X~t	.	(4.a#X~t	.	4ryy	.	4ryy	.	4.ryy	.	8ryy	.	8ryy	.	8ryy	.	8ryy	.	[4.FFF#X	.	[4.FF#X	.	[4.F#X	.	.	.	16ryy	.	16ryy	.	16ryy	.	4.ryy	.	4.ryy	.	4.ryy	.
.	.	.	.	.	.	.	.	.	.	.	.	.	.	.	.	.	.	.	.	.	.	.	.	.	.	.	.	16ryy	.	16ryy	.	16ryy	.	.	.	.	.	.	.
.	.	.	.	.	.	.	.	.	.	.	.	8ryy	.	8ryy	.	8ryy	.	8ryy	.	.	.	.	.	.	.	.	.	16ryy	.	16ryy	.	16ryy	.	.	.	.	.	.	.
.	.	.	.	.	.	.	.	.	.	.	.	.	.	.	.	.	.	.	.	.	.	.	.	.	.	.	.	16ryy	.	16ryy	.	16ryy	.	.	.	.	.	.	.
.	.	.	.	.	.	8ryy	.	8ryy	.	.	.	8ryy	.	8ryy	.	8ryy	.	8ryy	.	.	.	.	.	.	.	.	.	16ryy	.	16ryy	.	16ryy	.	.	.	.	.	.	.
.	.	.	.	.	.	.	.	.	.	.	.	.	.	.	.	.	.	.	.	.	.	.	.	.	.	.	.	16ryy	.	16ryy	.	16ryy	.	.	.	.	.	.	.
4FFF#]	.	4An)	.	4an)	.	4.ryy	.	4.ryy	.	4.ryy	.	8ryy	.	8ryy	.	8ryy	.	8ryy	.	4FFF#]	.	4FF#]	.	4F#]	.	.	.	16ryy	.	16ryy	.	16ryy	.	4.ryy	.	4.ryy	.	4.ryy	.
.	.	.	.	.	.	.	.	.	.	.	.	.	.	.	.	.	.	.	.	.	.	.	.	.	.	.	.	16ryy	.	16ryy	.	16ryy	.	.	.	.	.	.	.
.	.	.	.	.	.	.	.	.	.	.	.	8ryy	.	8ryy	.	8ryy	.	8ryy	.	.	.	.	.	.	.	.	.	16ryy	.	16ryy	.	16ryy	.	.	.	.	.	.	.
.	.	.	.	.	.	.	.	.	.	.	.	.	.	.	.	.	.	.	.	.	.	.	.	.	.	.	.	16ryy	.	16ryy	.	16ryy	.	.	.	.	.	.	.
8r	.	8r	.	8r	.	.	.	.	.	.	.	8ryy	.	8ryy	.	8ryy	.	8ryy	.	8r	.	8r	.	8r	.	.	.	16ryy	.	16ryy	.	16ryy	.	.	.	.	.	.	.
.	.	.	.	.	.	.	.	.	.	.	.	.	.	.	.	.	.	.	.	.	.	.	.	.	.	.	.	16ryy	.	16ryy	.	16ryy	.	.	.	.	.	.	.
=4	=4	=4	=4	=4	=4	=4	=4	=4	=4	=4	=4	=4	=4	=4	=4	=4	=4	=4	=4	=4	=4	=4	=4	=4	=4	=4	=4	=4	=4	=4	=4	=4	=4	=4	=4	=4	=4	=4	=4
*M6/8	*	*M6/8	*	*M6/8	*	*M6/8	*	*M6/8	*	*M6/8	*	*M6/8	*	*M6/8	*	*M6/8	*	*M6/8	*	*M6/8	*	*M6/8	*	*M6/8	*	*M6/8	*	*M6/8	*	*M6/8	*	*M6/8	*	*M6/8	*	*M6/8	*	*M6/8	*
[4.GGG	4ryy	(4.BB~t	4ryy	(4.B~t	4ryy	4ryy	4ryy	4ryy	4ryy	4%3ryy	.	4ryy	.	8ryy	.	4ryy	.	4ryy	.	[4.GGG	4ryy	[4.G	4ryy	[4.GG	4ryy	4%3ryy	.	8ryy	.	8ryy	.	8ryy	.	8ryy	.	8ryy	.	8ryy	.
.	.	.	.	.	.	.	.	.	.	.	.	.	.	8ryy	4ryy	.	.	.	.	.	.	.	.	.	.	.	.	8ryy	.	8ryy	.	8ryy	.	16ryy	4ryy	16ryy	4ryy	16ryy	4ryy
.	.	.	.	.	.	.	.	.	.	.	.	.	.	.	.	.	.	.	.	.	.	.	.	.	.	.	.	.	.	.	.	.	.	16ryy	.	16ryy	.	16ryy	.
.	.	.	.	.	.	8ryy	.	8ryy	.	.	.	8ryy	.	16ryy	.	8ryy	.	8ryy	.	.	.	.	.	.	.	.	.	8ryy	.	8ryy	.	8ryy	.	16ryy	.	16ryy	.	16ryy	.
.	.	.	.	.	.	.	.	.	.	.	.	.	.	16ryy	.	.	.	.	.	.	.	.	.	.	.	.	.	.	.	.	.	.	.	16ryy	.	16ryy	.	16ryy	.
4GGG]	4ryy	4BB-X)	4ryy	4B-X)	4ryy	4.ryy	4ryy	4.ryy	4ryy	.	.	4.ryy	.	8ryy	.	4.ryy	.	8ryy	.	4GGG]	4ryy	4G]	4ryy	4GG]	4ryy	.	.	4.ryy	.	4.ryy	.	4.ryy	.	16ryy	4ryy	16ryy	4ryy	16ryy	4ryy
.	.	.	.	.	.	.	.	.	.	.	.	.	.	.	.	.	.	.	.	.	.	.	.	.	.	.	.	.	.	.	.	.	.	16ryy	.	16ryy	.	16ryy	.
.	.	.	.	.	.	.	.	.	.	.	.	.	.	8ryy	.	.	.	8ryy	4ryy	.	.	.	.	.	.	.	.	.	.	.	.	.	.	16ryy	.	16ryy	.	16ryy	.
.	.	.	.	.	.	.	.	.	.	.	.	.	.	.	.	.	.	.	.	.	.	.	.	.	.	.	.	.	.	.	.	.	.	16ryy	.	16ryy	.	16ryy	.
8r	.	8r	.	8r	.	.	.	.	.	.	.	.	.	8ryy	.	.	.	16ryy	.	8r	.	8r	.	8r	.	.	.	.	.	.	.	.	.	16ryy	.	16ryy	.	16ryy	.
.	.	.	.	.	.	.	.	.	.	.	.	.	.	.	.	.	.	16ryy	.	.	.	.	.	.	.	.	.	.	.	.	.	.	.	16ryy	.	16ryy	.	16ryy	.
=5	=5	=5	=5	=5	=5	=5	=5	=5	=5	=5	=5	=5	=5	=5	=5	=5	=5	=5	=5	=5	=5	=5	=5	=5	=5	=5	=5	=5	=5	=5	=5	=5	=5	=5	=5	=5	=5	=5	=5
*M9/8	*	*M9/8	*	*M9/8	*	*M9/8	*	*M9/8	*	*M9/8	*	*M9/8	*	*M9/8	*	*M9/8	*	*M9/8	*	*M9/8	*	*M9/8	*	*M9/8	*	*M9/8	*	*M9/8	*	*M9/8	*	*M9/8	*	*M9/8	*	*M9/8	*	*M9/8	*
[4.BBB-X	.	(4.D~	.	(4.d~	.	8ryy	.	8ryy	.	8%9ryy	.	4.ryy	.	4.ryy	.	8ryy	.	8ryy	.	[4.BBBB-X	.	[4.BBB-X	.	[4.BB-X	.	8%9ryy	.	8ryy	.	8ryy	.	8ryy	.	16ryy	.	16ryy	.	16ryy	.
.	.	.	.	.	.	.	.	.	.	.	.	.	.	.	.	.	.	.	.	.	.	.	.	.	.	.	.	.	.	.	.	.	.	16ryy	.	16ryy	.	16ryy	.
.	.	.	.	.	.	8ryy	.	8ryy	.	.	.	.	.	.	.	8ryy	.	8ryy	.	.	.	.	.	.	.	.	.	8ryy	.	8ryy	.	8ryy	.	8ryy	.	8ryy	.	8ryy	.
.	.	.	.	.	.	8ryy	.	8ryy	.	.	.	.	.	.	.	16ryy	.	8ryy	.	.	.	.	.	.	.	.	.	16ryy	.	16ryy	.	16ryy	.	8ryy	.	8ryy	.	8ryy	.
.	.	.	.	.	.	.	.	.	.	.	.	.	.	.	.	16ryy	.	.	.	.	.	.	.	.	.	.	.	16ryy	.	16ryy	.	16ryy	.	.	.	.	.	.	.
4BBB-]	.	4D-X)	.	4d-X)	.	4.ryy	.	4.ryy	.	.	.	8ryy	.	8ryy	.	8ryy	.	4.ryy	.	4BBBB-]	.	4BBB-]	.	4BB-]	.	.	.	16ryy	.	16ryy	.	16ryy	.	4.ryy	.	4.ryy	.	4.ryy	.
.	.	.	.	.	.	.	.	.	.	.	.	.	.	.	.	.	.	.	.	.	.	.	.	.	.	.	.	16ryy	.	16ryy	.	16ryy	.	.	.	.	.	.	.
.	.	.	.	.	.	.	.	.	.	.	.	8ryy	4ryy	8ryy	4ryy	8ryy	.	.	.	.	.	.	.	.	.	.	.	16ryy	.	16ryy	.	16ryy	.	.	.	.	.	.	.
.	.	.	.	.	.	.	.	.	.	.	.	.	.	.	.	.	.	.	.	.	.	.	.	.	.	.	.	16ryy	.	16ryy	.	16ryy	.	.	.	.	.	.	.
8r	.	8r~	.	8r~	.	.	.	.	.	.	.	16ryy	.	16ryy	.	8ryy	.	.	.	8r	.	8r	.	8r	.	.	.	16ryy	.	16ryy	.	16ryy	.	.	.	.	.	.	.
.	.	.	.	.	.	.	.	.	.	.	.	16ryy	.	16ryy	.	.	.	.	.	.	.	.	.	.	.	.	.	16ryy	.	16ryy	.	16ryy	.	.	.	.	.	.	.
[4.FFF	.	(4.AAn~	.	(4.An~	.	4.ryy	.	4.ryy	.	.	.	8ryy	.	8ryy	.	4.ryy	.	8ryy	.	[4.FFF	.	[4.F	.	[4.FF	.	.	.	16ryy	.	16ryy	.	16ryy	.	4.ryy	.	4.ryy	.	4.ryy	.
.	.	.	.	.	.	.	.	.	.	.	.	.	.	.	.	.	.	.	.	.	.	.	.	.	.	.	.	16ryy	.	16ryy	.	16ryy	.	.	.	.	.	.	.
.	.	.	.	.	.	.	.	.	.	.	.	16ryy	.	8ryy	.	.	.	16ryy	.	.	.	.	.	.	.	.	.	16ryy	.	16ryy	.	16ryy	.	.	.	.	.	.	.
.	.	.	.	.	.	.	.	.	.	.	.	16ryy	.	.	.	.	.	16ryy	.	.	.	.	.	.	.	.	.	16ryy	.	16ryy	.	16ryy	.	.	.	.	.	.	.
.	.	.	.	.	.	.	.	.	.	.	.	8ryy	.	8ryy	.	.	.	8ryy	.	.	.	.	.	.	.	.	.	8ryy	.	8ryy	.	8ryy	.	.	.	.	.	.	.
=6	=6	=6	=6	=6	=6	=6	=6	=6	=6	=6	=6	=6	=6	=6	=6	=6	=6	=6	=6	=6	=6	=6	=6	=6	=6	=6	=6	=6	=6	=6	=6	=6	=6	=6	=6	=6	=6	=6	=6
4FFF]	.	4AA-X)	.	4A-X)	.	8ryy	.	8ryy	.	4.ryy	.	4.ryy	.	4.ryy	.	16ryy	.	16ryy	.	4FFF]	.	4F]	.	4FF]	.	8%9ryy	.	4.ryy	.	4.ryy	.	4.ryy	.	16ryy	4ryy	16ryy	4ryy	16ryy	4ryy
.	.	.	.	.	.	.	.	.	.	.	.	.	.	.	.	16ryy	.	16ryy	.	.	.	.	.	.	.	.	.	.	.	.	.	.	.	16ryy	.	16ryy	.	16ryy	.
.	.	.	.	.	.	8ryy	.	8ryy	.	.	.	.	.	.	.	8ryy	.	8ryy	.	.	.	.	.	.	.	.	.	.	.	.	.	.	.	16ryy	.	16ryy	.	16ryy	.
.	.	.	.	.	.	.	.	.	.	.	.	.	.	.	.	.	.	.	.	.	.	.	.	.	.	.	.	.	.	.	.	.	.	16ryy	.	16ryy	.	16ryy	.
8r	.	8r	.	8r	.	8ryy	.	8ryy	.	.	.	.	.	.	.	16ryy	.	8ryy	.	8r	.	8r	.	8r	.	.	.	.	.	.	.	.	.	16ryy	.	16ryy	.	16ryy	.
.	.	.	.	.	.	.	.	.	.	.	.	.	.	.	.	16ryy	.	.	.	.	.	.	.	.	.	.	.	.	.	.	.	.	.	16ryy	.	16ryy	.	16ryy	.
[4.EEE-X	.	(4.GG~	.	(4.G~	.	4ryy	.	4ryy	.	8ryy	.	8ryy	.	8ryy	.	4ryy	.	8ryy	.	[4.EEE-X	4ryy	[4.EE-X	4ryy	[4.E-X	4ryy	.	.	4.ryy	.	4.ryy	.	4.ryy	.	16ryy	.	16ryy	.	16ryy	.
.	.	.	.	.	.	.	.	.	.	.	.	.	.	.	.	.	.	.	.	.	.	.	.	.	.	.	.	.	.	.	.	.	.	16ryy	.	16ryy	.	16ryy	.
.	.	.	.	.	.	.	.	.	.	8ryy	4ryy	8ryy	.	8ryy	.	.	.	8ryy	.	.	.	.	.	.	.	.	.	.	.	.	.	.	.	16ryy	.	16ryy	.	16ryy	.
.	.	.	.	.	.	.	.	.	.	.	.	.	.	.	.	.	.	.	.	.	.	.	.	.	.	.	.	.	.	.	.	.	.	16ryy	.	16ryy	.	16ryy	.
.	.	.	.	.	.	8ryy	.	8ryy	.	16ryy	4ryy	16ryy	.	16ryy	.	8ryy	.	16ryy	.	.	.	.	.	.	.	.	.	.	.	.	.	.	.	16ryy	.	16ryy	.	16ryy	.
.	.	.	.	.	.	.	.	.	.	16ryy	.	16ryy	.	16ryy	.	.	.	16ryy	.	.	.	.	.	.	.	.	.	.	.	.	.	.	.	16ryy	.	16ryy	.	16ryy	.
4EEE-]	4ryy	4FF#X)	4ryy	4F#X)	4ryy	4ryy	4ryy	4ryy	4ryy	8ryy	.	8ryy	4ryy	8ryy	4ryy	8ryy	4ryy	8ryy	4ryy	4EEE-]	.	4EE-]	.	4E-]	.	.	.	8ryy	.	8ryy	.	8ryy	.	8ryy	.	8ryy	.	8ryy	.
.	.	.	.	.	.	.	.	.	.	8ryy	.	8ryy	.	8ryy	.	8ryy	.	8ryy	.	.	.	.	.	.	.	.	.	16ryy	4ryy	16ryy	4ryy	16ryy	4ryy	8ryy	.	8ryy	.	8ryy	.
.	.	.	.	.	.	.	.	.	.	.	.	.	.	.	.	.	.	.	.	.	.	.	.	.	.	.	.	16ryy	.	16ryy	.	16ryy	.	.	.	.	.	.	.
8r	.	8r	.	8r	.	8ryy	.	8ryy	.	8ryy	.	8ryy	.	8ryy	.	8ryy	.	8ryy	.	8r	.	8r	.	8r	.	.	.	16ryy	.	16ryy	.	16ryy	.	8ryy	.	8ryy	.	8ryy	.
.	.	.	.	.	.	.	.	.	.	.	.	.	.	.	.	.	.	.	.	.	.	.	.	.	.	.	.	16ryy	.	16ryy	.	16ryy	.	.	.	.	.	.	.
=7	=7	=7	=7	=7	=7	=7	=7	=7	=7	=7	=7	=7	=7	=7	=7	=7	=7	=7	=7	=7	=7	=7	=7	=7	=7	=7	=7	=7	=7	=7	=7	=7	=7	=7	=7	=7	=7	=7	=7
*M6/8	*	*M6/8	*	*M6/8	*	*M6/8	*	*M6/8	*	*M6/8	*	*M6/8	*	*M6/8	*	*M6/8	*	*M6/8	*	*M6/8	*	*M6/8	*	*M6/8	*	*M6/8	*	*M6/8	*	*M6/8	*	*M6/8	*	*M6/8	*	*M6/8	*	*M6/8	*
[4.DDD-X	.	(4.FFn~	.	(4.Fn~	.	8ryy	.	8ryy	.	4.ryy	.	8ryy	.	8ryy	.	8ryy	.	8ryy	.	[4.DDD-X	.	[4.DD-X	.	[4.D-X	.	4.ryy	.	16ryy	.	16ryy	.	16ryy	.	4.ryy	.	4.ryy	.	4.ryy	.
.	.	.	.	.	.	.	.	.	.	.	.	.	.	.	.	.	.	.	.	.	.	.	.	.	.	.	.	16ryy	.	16ryy	.	16ryy	.	.	.	.	.	.	.
.	.	.	.	.	.	4ryy	.	4ryy	.	.	.	8ryy	.	8ryy	.	8ryy	.	8ryy	.	.	.	.	.	.	.	.	.	16ryy	.	16ryy	.	16ryy	.	.	.	.	.	.	.
.	.	.	.	.	.	.	.	.	.	.	.	.	.	.	.	.	.	.	.	.	.	.	.	.	.	.	.	16ryy	.	16ryy	.	16ryy	.	.	.	.	.	.	.
.	.	.	.	.	.	.	.	.	.	.	.	8ryy	.	8ryy	.	8ryy	.	8ryy	.	.	.	.	.	.	.	.	.	16ryy	.	16ryy	.	16ryy	.	.	.	.	.	.	.
.	.	.	.	.	.	.	.	.	.	.	.	.	.	.	.	.	.	.	.	.	.	.	.	.	.	.	.	16ryy	.	16ryy	.	16ryy	.	.	.	.	.	.	.
!	!	!	!	!	!	!	!	!	!	!	!	!	!	!	!	!	!	!	!	!	!	!	!	!	!	!	!LO:DY:t=%s cresc.	!	!	!	!	!	!	!	!	!	!	!	!
4DDD-]	.	4EEn)	.	4En)	.	4.ryy	.	4.ryy	.	4.ryy	.	8ryy	.	8ryy	.	8ryy	.	8ryy	.	4DDD-]	.	4DD-]	.	4D-]	.	4.ryy	4ryy	16ryy	.	16ryy	.	16ryy	.	8ryy	.	8ryy	.	8ryy	.
.	.	.	.	.	.	.	.	.	.	.	.	.	.	.	.	.	.	.	.	.	.	.	.	.	.	.	.	16ryy	.	16ryy	.	16ryy	.	.	.	.	.	.	.
.	.	.	.	.	.	.	.	.	.	.	.	8ryy	.	8ryy	.	8ryy	.	8ryy	.	.	.	.	.	.	.	.	.	8ryy	.	8ryy	.	8ryy	.	8ryy	.	8ryy	.	8ryy	.
8r	.	8r	.	8r	.	.	.	.	.	.	.	8ryy	.	8ryy	.	8ryy	.	8ryy	.	8r	.	8r	.	8r	.	.	.	8ryy	.	8ryy	.	8ryy	.	16ryy	.	16ryy	.	16ryy	.
.	.	.	.	.	.	.	.	.	.	.	.	.	.	.	.	.	.	.	.	.	.	.	.	.	.	.	.	.	.	.	.	.	.	16ryy	.	16ryy	.	16ryy	.
=	=	=	=	=	=	=	=	=	=	=	=	=	=	=	=	=	=	=	=	=	=	=	=	=	=	=	=	=	=	=	=	=	=	=	=	=	=	=	=
*-	*-	*-	*-	*-	*-	*-	*-	*-	*-	*-	*-	*-	*-	*-	*-	*-	*-	*-	*-	*-	*-	*-	*-	*-	*-	*-	*-	*-	*-	*-	*-	*-	*-	*-	*-	*-	*-	*-	*-
!!!system-decoration: [(s1,s2[(s3,s4)][(s5,s6)]s7[(s8,s9)]s10)][([(s11,s12,s13,s14)])]s15[([(s16,s17)]s18,s19,s20)]
!!!Xfilter: slurcheck
!!!RDF**kern: j = marked note, color="magenta", text="extra)"
